X: 332
M: C
L: 1/8
K: D
V: 1
f>g |\
a>fd>d d3f | e>dc>B A>GF>E |\
a>fd>d d3f |
e>dc>B A>GF>E |\
a>ga>b =c'>ab>c' | b>ag>f g2b>a |
b>ag>f e>dc>B | c>dc>B A>GF>E |\
b>gb>g f>ed>c | d2d>d d2 :|
V: 2
d>e |\
f>af>f f3a | g2e2 c2A2 | D>FB>E G>ec>B | A2F>F F2d>e |
f>af>f f3a | g2e2 c2A2 | D>FB>E G>ec>A | F2F>F F2 :: z2 |
z2f>g a>fg>a | g>fe>d e2g2 | g2e2 c>BA>G | A>BA>G F2D2 |

